svg/u1fa93.svg

<svg viewBox="0 0 128 128" xmlns="http://www.w3.org/2000/svg">
  <g>
    <path d="M97.66,113.81c-5.71-26.32-15.75-29.81-27.43-43.26c-8.11-9.34-10.16-13.47-15.23-23.57 S46.6,30.24,46.6,30.24l19.27-10.86c0,0,12.01,27.56,22.87,38.42c5.46,5.46,23.05,22.9,35.2,56.04c1.15,3.14,0,11.75-13.21,9.91 C99.81,122.22,98.54,117.84,97.66,113.81z" fill="#FFCC80"/>
    <path d="M68.82,25.88c-2,0.47-5.1,1.37-5.21,1.3l-2.21-4.14l-5.39,2.62l-8.04,7.33 c1.43,2.85,3.9,7.77,7.03,14c1.68,3.34,3.52,6.85,5.45,10.28c0,0-0.02-7.42,5.53-13.06c3.1-3.15,6.64-8.8,6.64-10.84 C71.34,30.56,70.06,28.27,68.82,25.88z" fill="#EAAB57"/>
    <path d="M29.61,65.92c0.81,0.37,2.95,1.38,4.14-0.09c3.9-4.79,14.18-24.72,19.93-26.1 c1.84-0.44,3.71-0.74,5.52-1.28c7.65-2.27,10.57-6.13,11.81-8.34c0.72-1.28,0.76-2.42-0.4-4.48c-1.29-2.3-10.28-20.65-10.28-20.65 s-3.15-0.92-6.99,0.28c-1.44,0.45-6.96,3.36-10.86,6.29c-2.72,2.04-1.88,4.11-7.93,6.29c-7.13,2.58-19.72,5.47-25.88,6.92 c-3.59,0.85-4.39,1.94-4.49,4.97C4,35.61,8.31,56.34,29.61,65.92z" fill="#F44336"/>
    <path d="M52,5.01C50.05,5.69,14.72,21.68,8.46,23.96c-3.47,1.26-4.64,0.74-4.73,3.78 c-0.16,4.94,3.34,22.43,17.02,32.92c-1.62-2.22-11.36-11.67-13.31-29.9c-0.21-1.93,0.88-3.74,2.78-4.15 c7.16-1.55,29.32-6.53,42.2-12.57c5.27-2.47,9.55-6.39,7.93-9.04C59.57,3.73,56,3.6,52,5.01z" fill="#C62828"/>
    <path d="M24.27,44.43c-4.77-6.22-6.18-19.62-6.18-19.62s-7.15-1.4-9.96-0.48c-3.51,1.15-3.83,0.57-3.91,4.02 c-0.13,5.86,2.35,26.94,25.4,37.56c0.81,0.37,2.95,1.38,4.14-0.09c1.2-1.47,3.73-5.55,5.82-8.9 C33.91,54.48,29.65,51.45,24.27,44.43z" fill="#E0E0E0"/>
    <path d="M10.21,26.6c1.41-0.31,7.88-1.79,7.88-1.79l-3.62-3.32c0,0-3.91,1.3-7.32,2.49 c-2.88,1-3.43,1.2-3.42,3.76c0.01,4.94,2.5,22.15,17.02,32.92c-1.62-2.22-11.36-11.67-13.31-29.9C7.23,28.83,8.31,27.01,10.21,26.6 z" fill="#BDBDBD"/>
    <ellipse cx="48.96" cy="10.25" rx="10.43" ry="2.25" fill="#FFCC80" transform="matrix(0.9155 -0.4022 0.4022 0.9155 0.0109 20.5575)"/>
    <path d="M50.13,17.86c1.78,0.34,2.89,2.09,3.73,3.7c2.04,3.94,3.73,8.06,5.04,12.3 c0.08,0.25,0.15,0.51,0.08,0.75c-0.1,0.33-0.44,0.53-0.76,0.68c-1.85,0.91-3.97,1.72-5.94,1.1c-2.48-0.78-3.75-3.45-4.75-5.84 c-1.07-2.58-2.14-5.17-3.21-7.75C42.85,19.25,46.85,17.23,50.13,17.86z" fill="#FF5450"/>
  </g>
</svg>

<svg viewBox="0 0 128 128" xmlns="http://www.w3.org/2000/svg">
  <defs/>
  <path d="M97.66,113.81 C91.95,87.49 81.91,84 70.23,70.55 C62.12,61.21 60.07,57.08 55,46.98 C49.93,36.88 46.6,30.24 46.6,30.24 L65.87,19.38 C65.87,19.38 77.88,46.94 88.74,57.8 C94.2,63.26 111.79,80.7 123.94,113.84 C125.09,116.98 123.94,125.59 110.73,123.75 C99.81,122.22 98.54,117.84 97.66,113.81 Z" fill="#FFCC80"/>
  <path d="M68.82,25.88 C66.82,26.35 63.72,27.25 63.61,27.18 L61.4,23.04 L56.01,25.66 L47.97,32.99 C49.4,35.84 51.87,40.76 55,46.99 C56.68,50.33 58.52,53.84 60.45,57.27 C60.45,57.27 60.43,49.85 65.98,44.21 C69.08,41.06 72.62,35.41 72.62,33.37 C71.34,30.56 70.06,28.27 68.82,25.88 Z" fill="#EAAB57"/>
  <path d="M29.61,65.92 C30.42,66.29 32.56,67.3 33.75,65.83 C37.65,61.04 47.93,41.11 53.68,39.73 C55.52,39.29 57.39,38.99 59.2,38.45 C66.85,36.18 69.77,32.32 71.01,30.11 C71.73,28.83 71.77,27.69 70.61,25.63 C69.32,23.33 60.33,4.98 60.33,4.98 C60.33,4.98 57.18,4.06 53.34,5.26 C51.9,5.71 46.38,8.62 42.48,11.55 C39.76,13.59 40.6,15.66 34.55,17.84 C27.42,20.42 14.83,23.31 8.67,24.76 C5.08,25.61 4.28,26.7 4.18,29.73 C4,35.61 8.31,56.34 29.61,65.92 Z" fill="#F44336"/>
  <path d="M52,5.01 C50.05,5.69 14.72,21.68 8.46,23.96 C4.99,25.22 3.82,24.7 3.73,27.74 C3.57,32.68 7.07,50.17 20.75,60.66 C19.13,58.44 9.39,48.99 7.44,30.76 C7.23,28.83 8.32,27.02 10.22,26.61 C17.38,25.06 39.54,20.08 52.42,14.04 C57.69,11.57 61.97,7.65 60.35,5 C59.57,3.73 56,3.6 52,5.01 Z" fill="#C62828"/>
  <path d="M24.27,44.43 C19.5,38.21 18.09,24.81 18.09,24.81 C18.09,24.81 10.94,23.41 8.13,24.33 C4.62,25.48 4.3,24.9 4.22,28.35 C4.09,34.21 6.57,55.29 29.62,65.91 C30.43,66.28 32.57,67.29 33.76,65.82 C34.96,64.35 37.49,60.27 39.58,56.92 C33.91,54.48 29.65,51.45 24.27,44.43 Z" fill="#E0E0E0"/>
  <path d="M10.21,26.6 C11.62,26.29 18.09,24.81 18.09,24.81 L14.47,21.49 C14.47,21.49 10.56,22.79 7.15,23.98 C4.27,24.98 3.72,25.18 3.73,27.74 C3.74,32.68 6.23,49.89 20.75,60.66 C19.13,58.44 9.39,48.99 7.44,30.76 C7.23,28.83 8.31,27.01 10.21,26.6 Z" fill="#BDBDBD"/>
  <path d="M58.505,6.055 C59.005,7.192 55.135,9.993 49.861,12.31 C44.588,14.626 39.907,15.582 39.408,14.445 C38.908,13.307 42.778,10.507 48.051,8.19 C53.325,5.873 58.005,4.917 58.505,6.055 Z" fill="#FFCC80"/>
  <path d="M50.13,17.86 C51.91,18.2 53.02,19.95 53.86,21.56 C55.9,25.5 57.59,29.62 58.9,33.86 C58.98,34.11 59.05,34.37 58.98,34.61 C58.88,34.94 58.54,35.14 58.22,35.29 C56.37,36.2 54.25,37.01 52.28,36.39 C49.8,35.61 48.53,32.94 47.53,30.55 C46.46,27.97 45.39,25.38 44.32,22.8 C42.85,19.25 46.85,17.23 50.13,17.86 Z" fill="#FF5450"/>
</svg>
